icons/Map/train-wifi-fill.svg

<svg viewBox="0 0 24 24" xmlns="http://www.w3.org/2000/svg"><path d="M12.4981 3C12.1772 3.76965 12 4.61413 12 5.5C12 6.01621 12.0602 6.51837 12.1739 6.99984L5 7V11L15.035 11.0004C16.038 11.6336 17.2262 12 18.5 12C19.3861 12 20.2308 11.8227 21.0006 11.5016L21 18C21 19.1046 20.1046 20 19 20H17.2L19 21.5V22H5V21.5L6.8 20H5C3.89543 20 3 19.1046 3 18V7C3 4.79086 4.79086 3 7 3H12.4981ZM12 14C10.8954 14 10 14.8954 10 16C10 17.1046 10.8954 18 12 18C13.1046 18 14 17.1046 14 16C14 14.8954 13.1046 14 12 14ZM18.5 1C20.9853 1 23 3.01472 23 5.5C23 7.98528 20.9853 10 18.5 10C16.0147 10 14 7.98528 14 5.5C14 3.01472 16.0147 1 18.5 1ZM18.4998 6.16667C18.0089 6.16667 17.5593 6.34354 17.2113 6.63704L17.0856 6.75245L18.4998 8.16667L19.9131 6.7515C19.5512 6.39013 19.0516 6.16667 18.4998 6.16667ZM18.4998 3.5C17.2966 3.5 16.1998 3.95536 15.3722 4.70316L15.199 4.86781L16.1428 5.80964C16.746 5.20643 17.5794 4.83333 18.4998 4.83333C19.3436 4.83333 20.1141 5.14684 20.7013 5.66372L20.8569 5.80964L21.7997 4.86684C20.9552 4.02233 19.7885 3.5 18.4998 3.5Z"/></svg>

<svg xmlns="http://www.w3.org/2000/svg" viewBox="0 0 24 24">
    <g>
        <path fill="none" d="M0 0h24v24H0z"/>
        <path d="M12.498 3a6.518 6.518 0 0 0-.324 4H5v4h10.035a6.47 6.47 0 0 0 3.465 1 6.48 6.48 0 0 0 2.5-.498V18a2 2 0 0 1-2 2h-1.8l1.8 1.5v.5H5v-.5L6.8 20H5a2 2 0 0 1-2-2V7a4 4 0 0 1 4-4h5.498zM12 14a2 2 0 1 0 0 4 2 2 0 0 0 0-4zm6.5-13a4.5 4.5 0 1 1 0 9 4.5 4.5 0 0 1 0-9zm0 5.167c-.491 0-.94.177-1.289.47l-.125.115L18.5 8.167l1.413-1.416a1.994 1.994 0 0 0-1.413-.584zm0-2.667a4.65 4.65 0 0 0-3.128 1.203l-.173.165.944.942a3.323 3.323 0 0 1 2.357-.977 3.32 3.32 0 0 1 2.201.83l.156.147.943-.943A4.652 4.652 0 0 0 18.5 3.5z"/>
    </g>
</svg>
